tools/download-figma-icons/icons/outlined-medium/deadline.svg

<svg width="24" height="24" viewBox="0 0 24 24" fill="none" xmlns="http://www.w3.org/2000/svg">
<path fill-rule="evenodd" clip-rule="evenodd" d="M3 3C2.175 3 1.5 3.675 1.5 4.5V5.235L18.75 5.25V4.5C18.75 3.675 18.075 3 17.25 3H15.738L15.7343 3.75375C15.7327 4.167 15.3968 4.5 14.9843 4.5H14.9813C14.5665 4.49775 14.2327 4.16025 14.2343 3.74625L14.238 3H5.988L5.98425 3.75375C5.98275 4.167 5.64675 4.5 5.23425 4.5H5.23125C4.8165 4.49775 4.48275 4.16025 4.48425 3.74625L4.488 3H3ZM1.5 16.5C1.5 17.325 2.175 18 3 18H10.5C10.5 18.5175 10.5525 19.02 10.65 19.5H3C1.3425 19.5 0 18.1575 0 16.5V4.5C0 2.8425 1.3425 1.5 3 1.5H4.49625L4.5 0.74625C4.50225 0.333 4.8375 0 5.25 0H5.25375C5.6685 0.00225 6.00225 0.33975 6 0.75375L5.99625 1.5H14.2463L14.25 0.74625C14.2522 0.333 14.5875 0 15 0H15.0037C15.4185 0.00225 15.7522 0.33975 15.75 0.75375L15.7463 1.5H17.25C18.9075 1.5 20.25 2.8425 20.25 4.5V10.845C19.77 10.695 19.2675 10.59 18.75 10.5375V6.75L1.5 6.735V16.5ZM5.625 9C5.0025 9 4.5 9.5025 4.5 10.125C4.5 10.7475 5.0025 11.25 5.625 11.25C6.2475 11.25 6.75 10.7475 6.75 10.125C6.75 9.5025 6.2475 9 5.625 9ZM13.7625 19.5C14.37 21.2475 16.0425 22.5 18 22.5C20.4825 22.5 22.5 20.4825 22.5 18C22.5 16.335 21.5925 14.88 20.25 14.1075C19.8 13.8375 19.29 13.65 18.75 13.5675C18.51 13.5225 18.255 13.5 18 13.5C15.5175 13.5 13.5 15.5175 13.5 18C13.5 18.525 13.59 19.0275 13.7625 19.5ZM18.75 12.045C19.275 12.1125 19.7775 12.2475 20.25 12.4425C22.4475 13.335 24 15.4875 24 18C24 21.3075 21.3075 24 18 24C15.21 24 12.8625 22.0875 12.1875 19.5C12.0675 19.02 12 18.5175 12 18C12 14.6925 14.6925 12 18 12C18.255 12 18.5025 12.015 18.75 12.045ZM18.7502 17.6853L19.5227 18.4578L20.0327 18.9678C20.3245 19.2595 20.3245 19.7403 20.0327 20.0328C19.882 20.1753 19.6945 20.2503 19.5002 20.2503C19.3052 20.2503 19.1177 20.1753 18.9677 20.0328L18.2552 19.3195L17.4677 18.5328C17.4002 18.4653 17.3477 18.382 17.3102 18.292L17.3061 18.2821C17.292 18.2491 17.2802 18.2212 17.2802 18.1878C17.257 18.1278 17.2502 18.0603 17.2502 18.0003V15.7503C17.2502 15.3378 17.5877 15.0003 18.0002 15.0003C18.4127 15.0003 18.7502 15.3378 18.7502 15.7503V16.5003V17.6853ZM4.5 13.875C4.5 13.2525 5.0025 12.75 5.625 12.75C6.2475 12.75 6.75 13.2525 6.75 13.875C6.75 14.4975 6.2475 15 5.625 15C5.0025 15 4.5 14.4975 4.5 13.875ZM10.125 9C9.5025 9 9 9.5025 9 10.125C9 10.7475 9.5025 11.25 10.125 11.25C10.7475 11.25 11.25 10.7475 11.25 10.125C11.25 9.5025 10.7475 9 10.125 9ZM9 13.875C9 13.2525 9.5025 12.75 10.125 12.75C10.7475 12.75 11.25 13.2525 11.25 13.875C11.25 14.4975 10.7475 15 10.125 15C9.5025 15 9 14.4975 9 13.875ZM13.5 10.125C13.5 10.7475 14.0025 11.25 14.625 11.25C14.6775 11.25 14.7225 11.25 14.7675 11.235C14.985 11.2125 15.1725 11.13 15.33 10.995C15.585 10.7925 15.75 10.4775 15.75 10.125C15.75 9.5025 15.2475 9 14.625 9C14.0025 9 13.5 9.5025 13.5 10.125Z" fill="black"/>
</svg>

<svg xmlns="http://www.w3.org/2000/svg" width="24" height="24" fill="none" viewBox="0 0 24 24"><path fill="currentColor" fill-rule="evenodd" d="M3 3c-.825 0-1.5.675-1.5 1.5v.735l17.25.015V4.5c0-.825-.675-1.5-1.5-1.5h-1.512l-.004.754a.75.75 0 0 1-.75.746h-.003a.75.75 0 0 1-.747-.754L14.238 3h-8.25l-.004.754a.75.75 0 0 1-.75.746h-.003a.75.75 0 0 1-.747-.754L4.488 3zM1.5 16.5c0 .825.675 1.5 1.5 1.5h7.5c0 .517.053 1.02.15 1.5H3a3 3 0 0 1-3-3v-12a3 3 0 0 1 3-3h1.496L4.5.746A.75.75 0 0 1 5.25 0h.004A.75.75 0 0 1 6 .754l-.004.746h8.25l.004-.754A.75.75 0 0 1 15 0h.004a.75.75 0 0 1 .746.754l-.004.746h1.504a3 3 0 0 1 3 3v6.345a7.6 7.6 0 0 0-1.5-.308V6.75L1.5 6.735zM5.625 9C5.003 9 4.5 9.502 4.5 10.125s.503 1.125 1.125 1.125 1.125-.502 1.125-1.125S6.247 9 5.625 9m8.137 10.5c.608 1.747 2.28 3 4.238 3 2.483 0 4.5-2.017 4.5-4.5 0-1.665-.907-3.12-2.25-3.892-.45-.27-.96-.458-1.5-.54A4 4 0 0 0 18 13.5a4.504 4.504 0 0 0-4.5 4.5q.002.789.262 1.5m4.988-7.455a6 6 0 0 1 1.5.398A6 6 0 0 1 24 18c0 3.308-2.692 6-6 6-2.79 0-5.137-1.913-5.812-4.5a6.008 6.008 0 0 1 6.563-7.455m0 5.64.773.773.51.51a.757.757 0 0 1 0 1.065.77.77 0 0 1-.533.217.77.77 0 0 1-.532-.217l-.713-.713-.787-.787a.7.7 0 0 1-.158-.241l-.004-.01a.2.2 0 0 1-.026-.094.5.5 0 0 1-.03-.188v-2.25c0-.412.338-.75.75-.75.413 0 .75.338.75.75zM4.5 13.875c0-.623.503-1.125 1.125-1.125s1.125.502 1.125 1.125S6.247 15 5.625 15A1.123 1.123 0 0 1 4.5 13.875M10.125 9C9.502 9 9 9.502 9 10.125s.502 1.125 1.125 1.125 1.125-.502 1.125-1.125S10.748 9 10.125 9M9 13.875c0-.623.502-1.125 1.125-1.125s1.125.502 1.125 1.125S10.748 15 10.125 15A1.123 1.123 0 0 1 9 13.875m4.5-3.75c0 .623.502 1.125 1.125 1.125.053 0 .098 0 .143-.015.217-.022.404-.105.562-.24a1.11 1.11 0 0 0 .42-.87c0-.623-.502-1.125-1.125-1.125s-1.125.502-1.125 1.125" clip-rule="evenodd"/></svg>
